X: 22465
T: Lady Anne Montgomery
R: reel
M: 4/4
K: Dmajor
|:E|FADA FADA|FAdA BAdA|FADF EDEF|DB, (3A,B,C D3E|
FADA FADA|FAdc BABc|dBAF E2 FE|DB, (3A,B,C D3:|
|:e|f2fg fede|fedB ABde|f2fg fede|fdaf e2de|
f2fg fede|fedB ABde|fded BdAf|1 egfe d3:|2 egfe dBAG||

